!!!OTL: 218. Herbstlied.
!!!COM: Volksweise
!!!ODT: 1777 (vor)
!!!ARE: Europa, Mitteleuropa, Deutschland
!!!SCT: B0218
!!!TXL: @@DE
!!!YEM: Copyright 1995, estate of Helmut Schaffrath.
**kern	**text
*ICvox	*
*Ivox	*
*clefG2	*
*M6/8	*
*k[f#]	*
*e:	*
!LO:TX:a:t=Langsam.	!
{8B	Das
=1	=1
4e	Laub
8f#	fällt
8.gL	von
16f#J	.
8e	den
=2	=2
4.b	Bäu-
4f#}	-men,
{8a	das
=3	=3
8.gL	ʒar-
16f#J	.
8e	-te
4d#	Som-
8e	-mer-
=4	=4
4.f#	-laub;
4r}	.
{8e	das
=5	=5
8.b	Le-
16b	-ben
8b	mit
4g	ſei-
8e	-nen
=6	=6
4.ee	Träu-
4cc}	-men
{8a	ʒer-
=7	=7
8.gL	-fällt
16f#J	.
8e	in
8.f#L	Aſch
16eJ	.
8d#	und
=8	=8
4.e	Staub.
4r}	.
==	==
!!!AGN: Jahreszeiten - Lied, Herbst
!!!GTL: Jahreszeitenlieder
!!!ONB: ESAC (Essen Associative Code) Database: BOEHME
!!!AMT: compound duple
!!!AIN: vox
!!!EED: Helmut Schaffrath
!!!EEV: 1.0
!!Volksweiſe vor 1777.
!!@@COMMENT:"Mahlmann 1805. Mel. ʒuerſt in Fr. Nicolai, "Alm. 11777 ʒum Jägerlied: "Es gieng ein
!!Jäger jagen. Dann bei Ʒarnack, "Volksl. " 1820 ʒu: "Jch hab die Nacht geträumet."
!!@@END:
!!!URL-scan: https://archive.org/details/BoehmeVtLieder1895/page/n199/mode/2up
!!!ENC: Anna Maria Matuszewska
!!!EEV: 2024/24/06
*-	*-
